<?xml version="1.0" encoding="UTF-8"?>
<map version="1.10" tiledversion="1.10.2" orientation="orthogonal"
     renderorder="right-down" width="32" height="32"
     tilewidth="8" tileheight="8" infinite="0">

 <tileset firstgid="1" name="dungeon" tilewidth="8" tileheight="8">
  <image source="../tiles/dungeon_tiles.png" width="128" height="192"/>
 </tileset>

 <layer id="1" name="floor3" width="32" height="32">
  <data encoding="csv">
1,1,1,1,1,1,1,1,1,1,1,1,1,1,1,1,1,1,1,1,1,1,1,1,1,1,1,1,1,1,1,1
1,1,22,20,22,1,1,1,1,1,1,1,1,1,1,1,1,1,1,1,18,17,21,17,18,1,18,17,21,17,18,1
1,19,9,69,9,19,1,1,1,1,1,1,1,1,1,1,1,1,1,1,17,19,20,19,18,1,17,19,20,19,18,1
1,30,66,66,66,69,1,1,1,1,1,1,1,1,1,1,1,1,1,1,68,69,196,69,68,1,68,69,196,69,68,1
1,66,67,66,66,66,1,1,1,1,1,1,1,1,1,1,1,1,1,1,67,66,67,66,66,1,67,66,67,66,66,1
1,1,66,170,66,1,1,1,1,1,1,1,1,1,1,1,17,20,17,1,1,1,66,1,1,1,1,1,66,1,1,1
1,1,1,1,1,1,1,1,1,1,1,1,153,21,17,1,19,155,19,1,17,18,67,17,18,21,17,18,67,1,1,1
1,1,1,1,1,1,1,1,1,1,1,1,69,68,69,65,69,68,69,65,68,69,66,68,69,68,68,69,66,1,1,1
1,1,1,1,1,1,1,1,1,1,1,1,1,1,1,1,1,1,1,1,1,1,1,1,1,1,1,1,1,1,1,1
1,1,1,1,1,1,1,1,1,1,1,1,1,1,1,1,1,1,1,1,1,1,1,1,1,1,1,1,1,1,1,1
1,1,1,1,1,1,1,1,1,1,1,1,1,1,1,1,1,1,1,1,1,1,1,1,1,1,1,1,1,1,1,1
1,1,18,28,36,28,18,1,1,1,1,1,1,1,1,1,1,1,1,1,1,1,1,1,1,1,1,1,1,1,1,1
1,22,18,21,163,21,18,22,1,1,1,1,1,1,1,1,1,1,1,1,1,1,1,1,1,1,1,1,1,1,1,1
1,8,68,68,68,68,68,8,1,1,1,1,18,29,18,1,1,1,1,1,1,1,1,17,21,21,28,21,21,17,1,1
1,1,12,66,194,66,12,1,1,1,1,1,68,68,68,1,1,1,1,1,1,1,22,19,165,19,155,19,165,19,23,1
1,1,10,67,66,67,74,65,65,65,65,65,67,14,67,1,1,1,1,1,1,1,8,68,68,68,68,68,68,68,9,1
1,1,1,67,66,67,1,1,1,1,1,1,67,66,67,1,1,1,1,1,1,1,66,67,66,67,67,66,67,66,66,1
1,1,1,67,170,67,1,1,1,1,1,1,1,65,1,1,1,1,1,1,1,1,1,1,67,67,106,67,67,1,1,1
1,1,1,1,1,1,1,1,1,1,1,1,1,65,1,65,65,1,1,1,1,1,1,1,1,1,1,1,1,1,1,1
1,1,1,1,1,1,1,1,1,1,1,1,65,65,65,65,1,1,1,1,1,1,1,1,1,1,1,1,1,1,1,1
1,1,1,1,1,1,1,1,1,1,1,65,65,1,65,1,1,18,29,18,1,1,1,1,1,1,1,1,1,1,1,1
1,1,1,1,1,1,1,1,1,1,1,1,1,1,65,65,65,68,68,68,1,1,1,1,1,1,1,1,1,1,1,1
1,1,1,1,1,1,1,1,1,1,1,1,1,1,65,1,1,67,14,67,1,1,1,1,17,29,17,1,17,29,17,1
1,1,1,1,1,1,1,1,1,1,1,1,1,1,65,1,1,67,66,67,1,1,1,1,69,30,69,1,69,30,69,1
1,18,17,21,17,18,1,18,17,21,17,18,1,1,1,1,1,1,1,1,1,1,1,1,67,67,66,1,67,67,66,1
1,17,19,20,19,18,1,17,19,20,19,18,1,1,1,1,1,1,1,1,1,1,1,1,1,67,1,1,1,67,1,1
1,68,69,196,69,68,1,68,69,196,69,68,1,1,1,1,1,1,1,1,1,1,1,1,1,67,17,33,17,67,1,1
1,67,66,67,66,66,1,67,66,67,66,66,1,1,1,1,1,1,1,1,1,1,1,1,1,67,69,69,69,67,1,1
1,1,1,66,1,1,1,1,1,66,1,1,1,17,29,17,1,1,1,1,1,1,1,1,1,1,1,170,1,1,1,1
1,18,18,67,17,18,21,17,18,67,17,18,1,19,152,19,1,17,21,153,1,1,1,1,1,1,1,1,1,1,1,1
1,40,69,66,68,69,68,68,69,66,68,69,65,69,68,69,65,69,68,69,1,1,1,1,1,1,1,1,1,1,1,1
1,1,1,1,1,1,1,1,1,1,1,1,1,1,1,1,1,1,1,1,1,1,1,1,1,1,1,1,1,1,1,1
  </data>
 </layer>
</map>
