<?xml version="1.0" encoding="UTF-8"?>
<map version="1.10" tiledversion="1.10.2" orientation="orthogonal"
     renderorder="right-down" width="32" height="22"
     tilewidth="8" tileheight="8" infinite="0">

 <tileset firstgid="1" name="dungeon" tilewidth="8" tileheight="8">
  <image source="../tiles/dungeon_tiles.png" width="128" height="192"/>
 </tileset>

 <layer id="1" name="floor2" width="32" height="22">
  <data encoding="csv">
1,17,17,36,17,17,1,1,1,1,1,1,1,1,1,1,1,1,1,1,1,1,1,1,1,1,1,1,1,1,1,1
1,19,28,163,28,19,1,1,17,17,17,1,1,17,17,28,1,1,17,17,28,17,17,1,1,17,20,17,1,17,17,1
1,68,68,68,68,68,17,17,17,153,17,1,1,17,153,21,1,1,17,17,21,153,17,1,1,20,17,20,1,165,23,1
1,66,66,67,66,66,17,17,68,68,68,1,1,68,68,68,1,1,30,68,68,68,68,1,1,68,32,68,18,68,9,1
1,66,66,66,66,66,68,68,66,66,66,1,1,66,66,66,65,65,66,66,66,66,66,1,1,66,66,66,18,66,1,1
1,1,1,1,1,1,1,1,1,1,1,1,1,1,1,1,1,1,1,1,1,1,1,1,1,1,66,66,68,66,1,1
1,1,1,1,1,1,1,1,1,1,1,1,1,1,1,1,1,1,1,1,1,1,1,1,1,1,1,1,1,1,1,1
1,1,1,1,21,21,28,21,21,1,1,1,1,1,1,1,1,1,1,1,1,1,1,1,1,1,1,1,1,1,1,1
1,17,17,18,17,33,155,17,17,18,17,17,1,1,1,1,1,1,1,1,1,1,1,1,1,1,1,1,1,1,1,1
1,17,165,17,68,68,68,68,68,17,165,17,1,1,1,1,1,1,17,17,17,17,1,1,29,1,1,1,1,1,1,1
1,68,68,68,66,66,66,66,66,68,68,68,1,1,1,1,1,1,17,17,17,17,1,1,30,1,1,1,1,1,1,1
1,1,66,66,66,66,106,66,66,66,66,66,17,17,17,1,1,1,30,68,68,30,1,1,68,1,1,1,1,1,1,1
1,1,66,1,1,1,1,1,1,1,1,66,17,21,17,1,1,1,66,66,66,66,1,1,65,1,1,1,1,1,1,1
1,17,66,17,17,17,1,1,1,1,1,66,68,68,68,1,1,1,1,1,66,1,1,1,65,65,1,1,1,1,1,1
1,17,66,17,21,17,1,1,1,1,1,1,1,1,66,1,1,1,1,1,65,1,1,1,1,65,1,1,1,1,1,1
1,68,66,68,68,68,1,1,28,17,1,1,1,1,66,1,1,17,17,17,93,17,17,28,17,65,1,1,1,1,1,1
1,66,1,1,1,1,1,1,21,23,18,17,17,17,66,1,1,17,153,17,26,17,17,21,17,65,1,1,1,1,1,1
1,66,1,1,1,1,1,1,68,9,18,17,165,17,66,1,1,68,68,68,68,68,68,68,68,65,1,1,1,1,1,1
1,66,17,17,20,17,17,17,66,66,68,68,68,68,66,1,1,66,66,66,66,66,66,66,66,1,1,1,1,1,1,1
1,66,17,17,153,17,17,17,66,1,1,1,1,1,1,1,1,1,1,1,1,1,1,1,1,1,1,1,1,1,1,1
1,66,68,68,68,68,68,68,66,1,1,1,1,1,1,1,1,1,1,1,1,1,1,1,1,1,1,1,1,1,1,1
1,1,1,1,1,1,1,1,1,1,1,1,1,1,1,1,1,1,1,1,1,1,1,1,1,1,1,1,1,1,1,1
  </data>
 </layer>
</map>
