<?xml version="1.0" encoding="UTF-8"?>
<map version="1.10" tiledversion="1.10.2" orientation="orthogonal"
     renderorder="right-down" width="32" height="32"
     tilewidth="8" tileheight="8" infinite="0">

 <tileset firstgid="1" name="dungeon" tilewidth="8" tileheight="8">
  <image source="../tiles/dungeon_tiles.png" width="128" height="192"/>
 </tileset>

 <layer id="1" name="floor1" width="32" height="32">
  <data encoding="csv">
1,1,1,18,17,18,18,18,17,18,1,1,1,1,1,1,1,1,1,1,1,1,1,1,1,1,1,1,1,1,1,1
1,1,1,18,17,18,18,18,17,18,1,1,1,1,1,1,1,1,1,1,1,1,1,1,1,1,1,1,1,1,1,1
1,1,1,17,18,17,36,18,18,17,1,1,1,1,1,1,1,1,1,1,1,1,1,1,1,1,1,1,1,1,1,1
1,1,1,18,17,19,163,19,18,17,1,1,1,1,1,1,1,1,1,1,1,1,1,1,1,1,1,1,1,1,1,1
1,1,1,28,19,17,66,18,19,28,1,1,1,1,1,1,1,1,1,1,1,17,17,1,1,1,1,1,1,1,1,1
1,1,1,22,28,68,66,68,28,23,1,1,1,1,1,1,1,1,1,1,1,17,17,1,1,1,1,1,1,1,1,1
1,1,1,9,68,67,195,67,68,9,1,1,1,1,1,1,1,1,1,1,1,17,21,1,1,1,1,1,1,1,1,1
1,1,1,13,66,66,66,67,66,76,65,65,65,65,65,65,65,65,65,65,65,68,69,1,1,1,1,1,1,1,1,1
1,1,1,10,13,66,66,67,13,11,1,1,1,1,1,1,1,1,1,1,1,66,66,1,1,1,1,1,1,1,1,1
1,1,1,12,10,66,66,67,10,12,1,1,1,1,1,1,1,1,1,1,1,66,14,1,1,1,1,1,1,1,1,1
1,1,1,11,12,67,66,66,13,11,1,1,1,1,1,1,1,1,1,1,1,1,1,1,1,1,1,1,1,1,1,1
1,1,1,67,11,66,66,67,10,66,1,1,1,1,1,1,1,1,1,1,1,1,1,1,1,1,1,1,1,1,1,1
1,1,1,1,1,66,67,66,1,1,1,1,1,1,1,1,1,1,1,1,1,1,1,1,1,1,1,1,1,1,1,1
1,1,1,1,1,1,170,1,1,1,1,1,1,1,1,1,1,1,1,1,1,1,1,1,1,1,1,1,1,1,1,1
1,1,1,1,1,1,1,1,1,1,1,1,1,1,1,1,1,1,1,1,1,1,1,1,1,1,1,1,1,1,1,1
1,1,1,1,1,1,1,1,1,1,1,1,1,1,1,1,1,1,1,1,1,1,1,1,1,1,1,1,1,1,1,1
1,1,1,18,18,18,17,18,17,18,1,1,1,1,1,1,1,17,18,17,18,17,18,1,1,1,18,17,18,17,18,1
1,1,1,18,17,18,28,18,17,18,1,1,1,1,1,1,1,17,18,153,21,17,21,1,1,1,18,19,18,19,18,1
1,1,1,20,21,20,155,20,21,20,1,1,1,1,1,1,1,68,68,68,69,30,68,1,1,1,17,17,153,17,18,1
1,1,1,69,68,69,68,69,68,69,1,1,1,1,1,1,1,66,67,66,67,195,67,1,1,1,68,69,68,68,69,1
1,1,1,12,66,66,66,67,67,13,1,1,1,1,1,1,1,67,66,67,66,67,66,1,1,1,66,12,67,13,66,1
1,1,1,11,66,67,66,66,66,10,1,1,1,1,1,1,1,1,1,1,1,1,1,1,1,1,67,11,66,10,67,1
1,1,1,1,1,1,1,66,67,1,1,1,1,1,1,1,1,1,1,1,1,1,1,1,1,1,66,67,66,67,66,1
1,1,1,1,1,1,1,66,66,1,1,1,1,1,1,1,1,1,1,1,1,1,1,1,1,1,66,12,67,13,67,1
1,17,17,18,17,18,17,66,67,17,18,17,17,18,18,1,1,1,1,1,1,1,17,18,17,18,67,11,66,10,66,1
1,18,22,154,33,21,18,66,66,17,18,19,165,22,18,1,1,1,1,1,1,1,22,18,22,18,66,67,67,66,67,1
1,68,9,68,68,68,68,66,67,68,68,68,68,9,68,1,1,1,1,1,1,1,9,30,9,68,67,66,67,66,67,1
1,66,67,66,67,66,67,67,66,66,67,66,67,66,67,1,1,1,1,1,1,1,66,67,66,66,67,12,66,13,66,1
1,1,1,1,1,1,1,66,67,1,1,1,1,1,1,1,1,1,1,1,1,1,66,67,66,66,67,11,66,10,66,1
1,1,1,1,1,1,1,67,66,1,1,1,1,1,1,1,1,1,1,1,1,1,1,1,1,1,1,1,1,1,1,1
1,1,1,1,1,1,1,198,199,1,1,1,1,1,1,1,1,1,1,1,1,1,1,1,1,1,1,1,1,1,1,1
1,1,1,1,1,1,1,1,1,1,1,1,1,1,1,1,1,1,1,1,1,1,1,1,1,1,1,1,1,1,1,1
  </data>
 </layer>
</map>
