<?xml version="1.0" encoding="UTF-8"?>
<map version="1.10" tiledversion="1.10.2" orientation="orthogonal"
     renderorder="right-down" width="32" height="32"
     tilewidth="8" tileheight="8" infinite="0">

 <tileset firstgid="1" name="dungeon" tilewidth="8" tileheight="8">
  <image source="../tiles/dungeon_tiles.png" width="128" height="192"/>
 </tileset>

 <layer id="1" name="floor5" width="32" height="32">
  <data encoding="csv">
1,1,1,1,1,1,1,1,1,18,19,17,19,18,19,18,1,1,1,1,1,1,1,1,1,1,1,1,1,1,1,1
1,17,21,18,1,21,18,19,18,68,68,69,69,68,68,68,1,1,19,21,19,17,17,18,1,1,1,1,1,1,1,1
1,19,29,19,1,68,68,68,68,66,1,1,1,1,1,66,1,1,68,68,68,69,68,69,17,17,18,19,17,18,1,1
1,68,40,69,18,66,1,65,1,66,1,1,1,1,1,66,1,1,1,1,1,1,1,66,68,68,69,68,68,69,1,1
1,66,66,66,68,66,1,82,1,1,1,18,19,17,18,66,17,19,17,18,19,18,1,66,1,1,1,1,1,66,1,1
1,1,1,1,1,1,1,68,1,1,1,68,69,68,69,66,68,69,68,69,68,69,1,66,1,18,20,17,1,66,1,1
1,1,1,1,1,1,17,67,17,19,18,66,1,1,1,1,1,1,1,1,1,66,1,66,1,19,165,19,1,66,1,1
1,1,1,1,1,1,68,66,68,69,69,66,17,19,17,19,17,19,17,18,1,66,21,66,1,68,68,69,18,66,21,1
1,17,29,17,1,1,66,1,1,1,1,66,68,69,68,69,68,69,68,69,65,66,69,66,1,67,67,67,68,66,68,1
1,19,155,21,1,1,66,1,1,1,1,1,1,1,1,1,1,1,1,66,1,66,1,1,1,1,1,1,1,1,67,1
1,68,68,68,1,1,66,1,1,17,21,18,1,1,1,1,1,1,1,66,1,66,1,29,1,1,1,1,1,1,67,1
1,66,67,66,1,1,66,21,1,19,20,19,1,1,1,1,1,1,1,66,1,66,1,30,17,19,18,17,21,1,67,1
1,1,67,1,1,1,66,69,1,68,40,69,17,21,17,18,19,18,1,66,1,66,1,67,69,68,69,68,69,1,67,1
1,1,67,17,19,18,66,1,1,66,66,66,69,68,69,68,68,69,1,66,1,66,1,1,1,1,1,1,67,1,67,1
1,1,67,69,69,69,66,1,1,1,1,1,1,1,1,1,1,66,1,66,1,66,18,18,18,18,18,18,67,1,67,1
1,1,1,1,1,1,1,1,18,18,18,1,1,1,1,1,1,66,1,66,1,66,68,68,68,68,68,68,67,1,67,1
1,1,1,1,1,1,30,1,68,69,69,1,1,1,1,1,1,66,1,66,1,1,1,66,1,1,1,1,1,1,67,1
1,1,18,28,17,1,66,1,66,1,66,17,19,17,21,18,18,66,1,66,1,29,1,66,1,1,1,1,1,1,67,1
1,1,19,155,21,1,65,1,66,1,66,69,69,68,69,68,69,66,1,66,1,30,1,66,1,1,17,21,18,1,67,1
1,1,68,68,69,1,65,1,66,1,1,1,1,1,1,1,1,1,1,66,1,66,1,66,1,1,19,28,19,1,67,1
1,1,66,67,66,1,65,65,66,18,19,17,18,18,19,18,19,17,18,66,1,66,1,66,1,1,68,40,69,1,67,1
1,1,1,67,1,1,65,1,66,68,69,68,69,68,69,68,69,68,69,66,1,66,1,66,1,65,66,66,66,1,67,1
1,1,1,66,65,65,65,1,1,1,65,1,1,1,65,1,1,1,67,1,1,66,1,66,1,65,1,1,1,1,67,1
1,1,1,66,1,1,65,1,65,65,65,1,1,1,65,65,65,1,67,17,18,66,1,66,17,81,18,18,18,18,67,1
1,17,18,66,1,1,65,65,65,1,1,1,1,1,1,1,65,1,66,69,68,66,1,66,69,68,69,68,68,68,67,1
1,68,69,66,1,1,1,1,1,1,19,20,29,28,19,1,1,1,66,1,1,1,1,1,1,1,1,1,1,1,67,1
1,66,1,66,1,1,19,1,1,19,18,21,21,21,18,19,1,1,66,17,19,17,18,17,18,19,1,1,1,1,67,1
1,66,1,66,1,1,196,18,21,18,19,18,33,18,19,18,21,18,67,68,69,68,69,68,69,68,18,17,21,18,67,1
1,66,1,1,1,1,66,68,68,68,68,68,68,68,68,68,68,69,67,1,1,1,1,1,67,67,69,68,68,69,67,1
1,66,65,65,1,1,1,1,1,1,66,66,66,66,67,1,1,1,67,1,33,17,17,17,67,1,1,1,1,67,1,1
1,66,1,65,65,66,14,1,1,1,1,66,106,66,1,1,1,1,1,1,68,69,68,69,67,1,1,1,1,67,1,1
1,1,1,1,1,1,1,1,1,1,1,1,1,1,1,1,1,1,1,1,1,1,1,1,1,1,1,1,1,1,1,1
  </data>
 </layer>
</map>
