<?xml version="1.0" encoding="UTF-8"?>
<map version="1.10" tiledversion="1.10.2" orientation="orthogonal"
     renderorder="right-down" width="32" height="32"
     tilewidth="8" tileheight="8" infinite="0">

 <tileset firstgid="1" name="dungeon" tilewidth="8" tileheight="8">
  <image source="../tiles/dungeon_tiles.png" width="128" height="192"/>
 </tileset>

 <layer id="1" name="floor7" width="32" height="32">
  <data encoding="csv">
1,19,21,19,1,1,1,1,1,1,1,1,1,1,1,1,1,19,21,19,1,1,1,1,1,1,1,1,1,1,1,1
1,68,30,68,1,1,1,1,1,1,1,1,1,1,1,1,1,68,30,68,1,1,1,1,1,1,1,1,1,1,1,1
1,67,66,67,1,1,1,1,1,1,1,1,1,1,1,1,1,67,66,67,1,1,1,1,1,1,1,1,1,1,1,1
1,1,65,1,1,1,1,1,1,1,1,1,1,1,1,1,1,1,65,1,1,1,1,1,1,1,1,1,1,1,1,1
1,19,91,21,1,1,17,56,21,1,1,1,21,56,17,1,1,21,91,19,1,1,1,1,1,1,55,36,55,1,1,1
1,68,68,68,56,1,30,244,69,36,1,36,69,244,30,1,56,68,68,68,1,1,1,1,1,23,21,163,21,23,1,1
1,66,235,67,244,1,67,66,66,174,1,174,66,66,67,1,244,66,235,67,1,1,1,1,1,8,68,68,68,8,1,1
1,67,66,67,1,1,1,106,1,1,1,1,1,106,1,1,1,67,66,67,1,1,1,1,129,66,67,194,67,67,1,1
1,1,67,1,1,1,1,65,1,1,1,1,1,65,1,1,1,1,67,1,1,1,1,1,1,1,66,66,66,1,1,1
1,1,66,21,19,17,19,90,17,1,1,1,17,90,19,17,19,21,66,1,1,1,1,1,1,1,1,170,1,1,1,1
1,1,67,68,68,68,68,69,68,1,1,1,68,69,68,68,68,68,67,1,1,1,1,1,1,1,1,1,1,1,1,1
1,1,1,1,1,1,67,66,67,1,1,1,67,66,67,1,1,1,1,1,1,1,1,1,1,1,1,1,1,1,1,1
1,1,1,1,1,1,1,1,1,1,1,1,1,1,1,1,1,1,1,1,1,1,1,1,1,1,1,1,1,1,1,1
1,1,1,1,1,1,1,1,1,1,1,1,1,1,1,1,1,1,1,1,1,1,1,1,1,1,1,1,1,1,1,1
1,1,1,1,1,1,1,1,1,1,1,1,1,1,1,1,1,1,1,1,1,1,1,1,1,1,1,1,1,1,1,1
1,1,1,1,1,1,1,1,1,1,1,1,1,1,1,1,1,1,1,1,1,1,1,1,1,65,65,65,65,65,65,1
1,21,20,21,1,1,1,1,1,21,29,21,1,1,1,1,1,1,1,1,1,1,1,1,1,65,1,1,1,1,65,1
1,68,197,68,1,1,1,1,1,68,30,68,1,1,14,1,1,1,1,1,1,1,1,1,1,66,1,1,1,1,65,1
1,66,66,66,1,1,1,1,1,66,67,66,1,1,66,1,1,1,1,1,1,1,1,1,1,14,1,65,65,1,65,1
1,1,170,1,1,1,1,1,1,1,170,1,1,1,1,1,1,1,1,1,1,1,1,1,1,1,1,1,65,1,65,1
1,1,1,1,1,1,1,1,1,1,1,1,1,1,1,1,1,1,1,1,1,1,1,1,1,65,65,65,65,65,65,1
1,1,1,1,1,1,1,1,1,1,1,1,1,1,1,1,1,1,1,1,1,1,1,1,1,65,1,1,1,1,66,1
1,1,1,1,1,1,1,1,1,1,1,1,1,1,1,1,1,1,1,1,1,1,1,1,1,65,65,65,65,1,14,1
1,1,1,1,1,1,1,1,28,1,1,1,1,1,1,1,1,1,1,1,1,1,1,1,1,1,1,65,1,1,1,1
1,1,1,1,1,1,17,20,55,29,17,1,1,1,1,1,1,1,1,1,1,1,1,1,1,1,66,65,65,65,65,1
1,1,1,1,1,17,17,55,56,55,17,17,1,1,1,1,1,1,1,1,1,1,1,1,1,1,1,1,65,1,1,1
1,1,17,19,17,22,21,155,163,155,33,22,17,19,17,1,1,1,1,1,1,1,1,1,1,1,1,1,65,1,1,1
1,57,19,21,19,8,68,68,69,68,68,8,19,21,19,57,1,1,1,1,1,29,21,1,1,1,1,1,65,65,1,1
1,176,68,68,68,67,66,38,67,38,66,67,68,68,68,176,1,1,1,1,1,30,68,1,1,14,1,1,1,65,1,1
1,1,1,1,1,66,66,67,66,67,66,66,1,1,1,1,1,1,1,1,1,67,66,1,1,66,1,1,1,66,66,129
1,1,1,1,1,1,1,67,106,67,1,1,1,1,1,1,1,1,1,1,1,170,1,1,1,65,65,65,65,65,1,1
1,1,1,1,1,1,1,1,1,1,1,1,1,1,1,1,1,1,1,1,1,1,1,1,1,1,1,1,1,1,1,1
  </data>
 </layer>
</map>
