<?xml version="1.0" encoding="UTF-8"?>
<map version="1.10" tiledversion="1.10.2" orientation="orthogonal"
     renderorder="right-down" width="32" height="32"
     tilewidth="8" tileheight="8" infinite="0">

 <tileset firstgid="1" name="dungeon" tilewidth="8" tileheight="8">
  <image source="../tiles/dungeon_tiles.png" width="128" height="192"/>
 </tileset>

 <layer id="1" name="floor8" width="32" height="32">
  <data encoding="csv">
1,1,1,1,1,1,1,28,17,28,1,1,1,1,1,1,1,1,1,1,1,1,1,1,1,1,1,1,1,1,1,1
1,1,1,1,1,1,55,21,28,21,55,1,1,1,1,1,1,1,1,1,1,1,1,1,1,1,1,1,1,1,1,1
1,1,1,1,1,55,68,68,69,68,68,55,1,1,1,1,1,1,1,1,1,1,1,1,1,1,1,1,1,1,1,1
1,1,1,1,1,68,67,67,194,67,67,68,1,1,1,1,1,1,1,1,1,1,1,1,1,1,1,1,1,1,1,1
1,1,1,1,1,66,67,67,66,67,67,66,1,1,1,1,1,1,1,1,1,1,1,1,1,1,1,1,1,1,1,1
1,1,1,1,1,67,66,67,66,67,66,67,1,1,1,1,1,1,1,1,1,1,1,1,1,1,1,1,1,1,1,1
1,1,1,1,1,1,67,67,170,67,67,1,1,1,1,1,1,1,1,1,1,1,1,1,1,1,1,1,1,1,1,1
1,1,1,1,1,1,1,1,1,1,1,1,1,1,1,1,1,1,1,1,1,1,1,1,1,1,1,1,1,1,1,1
1,1,1,1,1,54,54,54,54,54,54,54,1,1,1,1,1,1,1,1,29,17,29,1,1,1,1,1,1,1,1,1
1,1,1,1,19,20,20,20,155,20,20,20,19,1,1,1,1,1,1,56,30,21,30,56,1,1,1,1,1,1,1,1
1,1,1,1,21,68,69,68,68,69,68,68,21,1,1,1,1,1,1,197,66,68,66,197,1,1,1,1,1,1,1,1
1,1,1,1,68,67,66,67,194,66,67,67,68,65,65,65,65,65,65,66,66,66,66,66,1,1,1,1,1,1,1,1
1,1,1,1,1,1,67,66,67,66,67,1,1,1,1,1,1,1,1,1,1,1,1,1,1,1,1,1,1,1,1,1
1,1,1,1,1,1,1,67,66,67,1,1,1,1,1,1,1,1,1,1,1,1,1,1,1,1,1,1,1,1,1,1
1,1,1,1,1,1,1,67,66,67,1,1,1,1,1,1,1,1,1,1,1,1,1,1,1,1,1,1,1,1,1,1
1,1,1,18,20,18,1,67,66,67,1,18,20,18,1,1,1,1,1,1,1,1,1,1,1,1,1,1,1,1,1,1
1,1,1,68,30,69,21,66,67,66,21,68,30,69,1,1,1,1,1,1,1,1,1,1,1,1,1,1,1,1,1,1
1,1,1,66,195,66,69,67,66,67,68,66,195,66,1,1,1,1,1,1,1,1,1,1,1,1,1,1,1,1,1,1
1,1,1,1,1,1,1,66,67,66,1,1,1,1,1,1,1,1,1,1,1,1,1,1,1,1,1,1,1,1,1,1
1,1,1,1,1,1,1,66,67,66,1,1,1,1,1,1,1,1,1,1,1,1,1,1,1,1,1,1,1,1,1,1
1,1,18,20,18,1,1,66,67,66,1,1,18,20,18,1,1,1,1,1,1,1,1,1,1,1,1,1,1,1,1,1
1,1,68,30,69,56,21,66,67,66,21,56,68,30,69,1,1,1,1,1,1,1,1,1,1,1,1,1,1,1,1,1
1,1,66,195,66,197,68,66,67,66,68,197,66,195,66,1,1,1,1,1,1,1,1,1,1,1,1,1,1,1,1,1
1,1,1,1,1,1,1,66,67,66,1,1,1,1,1,1,1,1,1,1,1,1,1,1,1,1,1,1,1,1,1,1
1,1,1,1,1,1,1,66,67,66,1,1,1,1,1,1,1,1,1,1,1,1,1,1,1,1,1,1,1,1,1,1
1,18,20,18,1,1,1,66,67,66,1,1,1,18,20,18,1,1,1,1,1,1,1,1,1,1,1,1,1,1,1,1
1,68,30,69,19,56,21,66,67,66,21,56,19,68,30,69,1,1,1,1,1,1,1,1,1,1,1,1,1,1,1,1
1,66,195,66,68,197,68,66,67,66,68,197,68,66,195,66,1,1,1,1,1,1,1,1,1,1,1,1,1,1,1,1
1,1,1,1,1,1,1,66,67,66,1,1,1,1,1,1,1,1,1,1,1,1,1,1,1,1,1,1,1,1,1,1
1,1,1,1,1,1,1,66,106,66,1,1,1,1,1,1,1,1,1,1,1,1,1,1,1,1,1,1,1,1,1,1
1,1,1,1,1,1,1,1,1,1,1,1,1,1,1,1,1,1,1,1,1,1,1,1,1,1,1,1,1,1,1,1
1,1,1,1,1,1,1,1,1,1,1,1,1,1,1,1,1,1,1,1,1,1,1,1,1,1,1,1,1,1,1,1
  </data>
 </layer>
</map>
