<?xml version="1.0" encoding="UTF-8"?>
<map version="1.10" tiledversion="1.10.2" orientation="orthogonal"
     renderorder="right-down" width="32" height="32"
     tilewidth="8" tileheight="8" infinite="0">

 <tileset firstgid="1" name="dungeon" tilewidth="8" tileheight="8">
  <image source="../tiles/dungeon_tiles.png" width="128" height="192"/>
 </tileset>

 <layer id="1" name="floor4" width="32" height="32">
  <data encoding="csv">
1,1,1,1,1,1,1,1,1,1,1,1,1,1,1,1,1,1,1,1,1,1,1,1,1,1,1,1,1,1,1,1
1,1,1,1,1,1,1,1,1,1,1,1,1,1,1,1,1,1,1,1,1,1,1,1,1,1,1,1,1,1,1,1
17,21,17,1,1,1,1,1,1,1,1,1,1,1,1,1,1,1,17,21,17,1,1,1,1,1,1,1,1,1,1,1
68,196,69,1,1,1,1,1,1,1,1,1,1,1,1,1,1,1,30,68,30,1,1,1,1,1,1,1,1,1,1,1
66,66,66,1,1,1,1,1,1,1,1,1,1,1,1,1,1,1,66,66,66,1,1,1,1,1,1,1,1,1,1,1
1,170,1,1,1,1,1,1,1,1,1,1,1,1,1,1,1,1,1,170,1,1,1,1,1,1,1,1,1,1,1,1
1,1,1,1,1,1,1,1,1,1,1,1,1,1,1,1,1,1,1,1,1,1,1,1,1,1,1,1,1,1,1,1
1,20,1,1,1,1,1,1,1,1,1,1,1,1,1,1,1,1,1,29,1,1,1,1,1,1,1,1,1,1,1,1
1,155,20,36,29,1,1,1,1,20,36,29,1,1,1,1,20,36,29,155,1,1,1,1,1,1,1,1,1,1,1,1
1,68,21,19,21,165,1,1,17,21,21,19,17,1,1,165,19,21,21,68,1,1,1,1,1,1,1,1,1,1,1,1
1,66,68,68,69,68,1,1,17,68,68,69,17,1,1,68,68,68,69,66,1,1,1,1,1,1,1,1,1,1,1,1
1,1,1,1,1,66,1,1,68,66,67,66,68,1,1,66,1,1,1,1,1,1,1,1,1,1,1,1,1,1,1,1
1,1,17,17,19,66,1,1,67,1,170,1,67,1,1,66,19,17,17,1,1,1,1,1,1,1,1,1,1,1,1,1
1,1,30,68,68,66,1,1,66,1,1,1,66,1,1,66,68,68,30,1,1,1,1,1,1,1,1,1,1,1,1,1
1,1,1,1,1,66,1,1,66,1,18,1,66,1,1,66,1,1,1,1,1,1,1,1,1,1,1,1,1,1,1,1
1,1,1,1,1,66,1,1,66,18,18,18,66,1,1,67,1,1,1,1,1,1,1,1,1,1,1,1,1,1,1,1
1,17,17,19,17,67,1,1,67,19,40,19,67,1,1,66,17,19,17,17,1,1,1,1,1,1,1,1,1,1,1,1
1,40,68,68,68,66,1,1,66,68,66,68,66,1,1,67,68,68,68,40,1,1,1,1,1,1,1,1,1,1,1,1
1,1,1,1,1,1,1,1,1,66,67,66,1,1,1,1,1,1,1,1,1,1,1,1,1,1,1,17,36,17,1,1
1,1,1,1,1,1,1,1,1,1,1,1,1,1,1,1,1,1,1,1,1,1,1,1,1,1,18,21,163,21,18,1
1,1,1,1,1,1,1,1,1,1,1,1,1,1,1,1,1,1,1,1,1,1,1,1,1,1,68,69,68,69,68,1
1,1,1,1,1,1,1,1,1,1,1,1,1,1,1,1,1,1,1,1,1,1,1,1,1,1,66,67,194,66,67,1
1,1,1,1,1,1,1,1,1,1,1,1,1,1,1,1,1,1,1,1,1,1,1,1,1,1,1,67,66,66,1,1
1,1,1,1,1,1,1,1,1,1,1,1,1,1,1,1,1,1,1,1,1,1,1,1,1,1,1,1,170,1,1,1
1,1,1,1,1,1,1,1,1,1,1,1,1,1,1,1,1,1,1,1,1,1,1,1,1,1,1,1,1,1,1,1
1,1,1,1,1,1,1,1,1,1,1,1,1,1,1,1,1,1,1,19,17,18,1,1,1,1,1,18,17,18,1,1
1,1,1,1,65,65,65,1,1,1,1,1,1,1,1,1,1,1,18,18,19,19,18,20,36,29,17,18,28,17,18,1
1,1,17,29,81,1,65,1,1,1,1,17,29,17,1,1,1,1,22,153,153,153,23,21,21,21,22,19,155,19,23,1
1,1,68,30,68,1,65,1,1,65,65,68,30,68,1,1,1,1,9,68,69,68,9,68,69,68,9,68,68,69,9,1
1,1,66,67,66,1,65,65,65,65,1,66,67,66,65,65,65,65,65,66,67,66,66,66,67,66,67,67,66,67,1,1
1,1,1,1,1,1,1,1,1,1,1,1,1,1,1,1,1,1,1,1,1,1,1,66,106,66,1,1,1,1,1,1
1,1,1,1,1,1,1,1,1,1,1,1,1,1,1,1,1,1,1,1,1,1,1,1,1,1,1,1,1,1,1,1
  </data>
 </layer>
</map>
