<?xml version="1.0" encoding="UTF-8"?>
<map version="1.10" tiledversion="1.10.2" orientation="orthogonal"
     renderorder="right-down" width="32" height="32"
     tilewidth="8" tileheight="8" infinite="0">

 <tileset firstgid="1" name="dungeon" tilewidth="8" tileheight="8">
  <image source="../tiles/dungeon_tiles.png" width="128" height="192"/>
 </tileset>

 <layer id="1" name="floor6" width="32" height="32">
  <data encoding="csv">
1,1,1,1,1,1,1,18,28,18,1,1,1,1,1,1,1,1,1,1,1,1,1,1,1,1,1,1,1,1,1,1
1,56,19,56,1,1,57,19,155,19,57,1,1,56,19,56,1,1,1,1,1,1,1,1,1,1,1,1,1,1,1,1
1,240,68,240,1,18,68,68,108,68,68,18,1,240,68,240,1,1,1,1,1,1,1,1,1,1,1,1,1,1,1,1
1,1,66,1,1,68,67,66,67,66,67,68,1,1,67,1,1,1,1,1,1,1,19,20,21,1,29,29,29,1,1,1
1,1,67,1,1,107,66,38,66,38,66,107,1,1,66,1,1,1,1,1,1,1,68,68,69,1,30,30,30,1,1,1
1,1,66,17,21,66,66,67,66,66,67,66,21,17,67,1,1,1,1,1,1,1,67,66,67,1,67,66,67,1,1,1
1,1,67,68,68,66,66,67,66,67,66,66,69,69,66,1,1,1,1,1,1,1,1,66,1,1,1,66,1,1,1,1
1,1,1,1,1,1,107,67,106,67,66,1,1,1,1,1,1,1,1,1,57,17,19,66,1,1,1,66,1,1,1,1
1,1,1,1,1,1,1,1,1,1,1,1,1,1,1,1,1,1,1,1,68,68,69,67,1,1,1,67,21,17,57,1
1,1,1,1,1,1,1,1,1,1,1,1,1,1,1,1,1,1,1,1,170,1,1,1,1,1,1,66,68,68,69,1
1,1,1,1,1,1,1,1,1,1,1,1,1,1,1,1,1,1,1,1,1,1,1,1,1,1,1,1,1,1,170,1
1,1,1,1,1,1,1,1,1,1,1,1,1,1,1,1,1,1,1,1,1,1,1,1,1,1,1,1,1,1,1,1
1,1,1,1,19,21,19,1,1,1,1,1,1,1,1,1,1,1,1,1,1,1,1,1,1,1,1,1,1,1,1,1
1,1,1,1,68,68,69,65,65,65,65,65,65,1,1,1,1,1,1,1,1,1,1,1,1,1,1,1,1,1,1,1
1,1,1,18,67,66,67,57,18,1,1,1,65,1,1,1,1,1,1,1,1,1,1,1,1,1,1,1,1,1,1,1
1,1,1,40,67,66,67,68,68,1,1,1,66,1,1,1,1,1,1,1,1,1,1,1,1,1,1,1,1,1,1,1
1,1,1,1,1,107,1,1,66,1,1,1,14,1,1,1,1,1,1,1,1,1,1,1,1,1,1,1,1,1,1,1
1,17,20,18,1,1,1,36,67,1,1,1,1,1,1,1,1,1,1,1,1,17,21,17,18,1,1,1,1,1,1,1
1,19,155,19,1,1,1,174,66,1,1,17,29,18,1,1,1,1,1,1,19,68,68,69,68,57,1,1,1,1,1,1
21,68,68,69,36,1,1,1,1,1,36,19,155,19,21,1,1,1,1,17,68,67,66,67,66,68,19,1,1,1,1,1
68,67,66,67,174,1,1,107,1,1,174,68,68,69,69,1,1,1,1,68,67,66,67,66,1,66,68,1,1,1,1,1
1,67,194,67,1,1,57,67,21,1,1,67,194,67,1,1,1,1,1,1,67,173,173,1,1,1,194,1,1,1,1,1
1,1,1,1,1,36,68,66,68,1,1,1,1,1,1,1,1,1,1,1,66,173,1,1,1,1,1,1,1,1,1,1
1,1,1,1,1,174,66,67,67,18,19,18,18,1,1,1,1,1,1,1,1,1,1,1,17,19,1,1,1,1,1,1
1,1,1,1,1,1,67,66,67,69,68,69,40,1,1,1,1,1,1,1,17,19,17,19,174,68,17,1,1,1,1,1
1,1,1,1,1,1,66,14,67,1,1,1,1,1,1,1,1,1,1,21,30,68,174,174,66,66,68,1,1,1,1,1
1,1,1,1,1,1,1,1,1,1,1,1,1,1,1,1,1,1,1,68,67,66,67,66,66,66,67,1,1,1,1,1
1,1,1,1,1,1,1,1,1,1,1,1,1,1,1,1,1,1,1,1,66,67,1,1,1,67,1,1,1,1,1,1
1,1,1,1,1,1,1,1,1,1,1,1,1,1,1,1,1,1,1,1,1,66,19,1,1,1,1,1,1,1,1,1
1,1,1,1,1,1,1,1,1,1,1,1,1,1,1,1,1,1,1,1,1,67,196,1,1,1,1,1,1,1,1,1
1,1,1,1,1,1,1,1,1,1,1,1,1,1,1,1,1,1,1,1,1,1,1,1,1,1,1,1,1,1,1,1
1,1,1,1,1,1,1,1,1,1,1,1,1,1,1,1,1,1,1,1,1,1,1,1,1,1,1,1,1,1,1,1
  </data>
 </layer>
</map>
